; generated by PrusaSlicer 2.3.0+ on 2022-08-21 at 06:20:05 UTC


;
;

;
;
; 

; external perimeters extrusion width = 0.45mm
; perimeters extrusion width = 0.45mm
; infill extrusion width = 0.45mm
; solid infill extrusion width = 0.45mm
; top infill extrusion width = 0.40mm
; first layer extrusion width = 0.42mm

M73 P0 R126
M201 X1250 Y1250 Z400 E5000 ; sets maximum accelerations, mm/sec^2
M203 X180 Y180 Z12 E80 ; sets maximum feedrates, mm/sec
M204 P1250 R1250 T1250 ; sets acceleration (P, T) and retract acceleration (R), mm/sec^2
M205 X8.00 Y8.00 Z2.00 E10.00 ; sets the jerk limits, mm/sec
M205 S0 T0 ; sets the minimum extruding and travel feed rate, mm/sec
M107
;TYPE:Custom
G90 ; use absolute coordinates
M83 ; extruder relative mode
M104 S170 ; set extruder temp for bed leveling
M140 S60 ; set bed temp
M109 R170 ; wait for bed leveling temp
M190 S60 ; wait for bed temp
G28 ; home all without mesh bed level
G29 ; mesh bed leveling 
M104 S215 ; set extruder temp
G92 E0.0
G1 Y-2.0 X179 F2400
G1 Z3 F720
M109 S215 ; wait for extruder temp

; intro line
G1 X170 F1000
G1 Z0.2 F720
G1 X110.0 E8.0 F900
G1 X40.0 E10.0 F700
G92 E0.0

M221 S95 ; set flow
G21 ; set units to millimeters
G90 ; use absolute coordinates
M83 ; use relative distances for extrusion
M900 K0.2 ; Filament gcode LA 1.5
; ; Filament gcode LA 1.0
;LAYER_CHANGE
;Z:0.2
;HEIGHT:0.2
;BEFORE_LAYER_CHANGE
G92 E0.0
;0.2


G1 Z0.200 F9000.000
;AFTER_LAYER_CHANGE
;0.2
G1 E-3.20000 F4200.000
G1 Z0.400 F9000.000
G1 X30.849 Y22.500
G1 Z0.200
G1 E3.20000 F2400.000
M204 S800
;TYPE:Skirt
;WIDTH:0.42
G1 F1200.000
G1 X32.070 Y21.614 E0.04730
G1 X33.234 Y21.155 E0.03926
G1 X34.577 Y20.979 E0.04247
G1 X127.599 Y20.979 E2.91663
G1 X128.765 Y21.114 E0.03680
G1 X129.277 Y21.260 E0.01669
G1 X130.331 Y21.727 E0.03615
G1 X131.385 Y22.542 E0.04176
G1 X132.122 Y23.467 E0.03711
G1 X132.382 Y23.928 E0.01657
G1 X132.798 Y24.999 E0.03604
G1 X132.971 Y26.274 E0.04033
G1 X132.970 Y87.659 E1.92470
M73 P0 R125
G1 X132.780 Y88.982 E0.04191
G1 X132.218 Y90.302 E0.04496
G1 X131.356 Y91.399 E0.04377
G1 X130.121 Y92.299 E0.04790
G1 X128.919 Y92.767 E0.04044
G1 X68.755 Y106.782 E1.93690
G1 X67.498 Y106.933 E0.03971
G1 X61.450 Y106.933 E0.18964
G1 X60.311 Y106.796 E0.03597
G1 X58.909 Y106.269 E0.04694
G1 X31.998 Y92.263 E0.95123
G1 X30.967 Y91.516 E0.03991
G1 X30.000 Y90.345 E0.04764
G1 X18.949 Y72.879 E0.64802
G1 X18.778 Y72.387 E0.01633
G1 X18.718 Y71.870 E0.01633
G1 X18.718 Y41.849 E0.94129
G1 X18.792 Y41.268 E0.01835
G1 X19.086 Y40.586 E0.02331
G1 X30.028 Y23.525 E0.63546
G1 X30.811 Y22.547 E0.03930
M204 S1250
; printing object ChipMounter_jig.stl id:0 copy 0
G1 E-2.24000 F4200.000
;WIPE_START
G1 F7200.000
G1 X32.070 Y21.614 E-0.86819
G1 X32.143 Y21.585 E-0.04381
;WIPE_END
G1 E-0.04800 F4200.000
G1 Z0.400 F9000.000
G1 X73.528 Y67.696
G1 Z0.200
G1 E3.20000 F2400.000
M204 S800
;TYPE:Perimeter
G1 F1200.000
G1 X74.048 Y67.297 E0.02056
G1 X74.650 Y67.047 E0.02041
G1 X75.258 Y66.967 E0.01922
G1 X75.936 Y67.046 E0.02142
G1 X76.542 Y67.297 E0.02056
G1 X77.059 Y67.693 E0.02041
G1 X77.455 Y68.209 E0.02041
G1 X77.704 Y68.811 E0.02041
G1 X77.789 Y69.456 E0.02041
G1 X77.704 Y70.102 E0.02041
G1 X77.455 Y70.703 E0.02041
G1 X77.059 Y71.220 E0.02041
G1 X76.542 Y71.616 E0.02041
G1 X75.941 Y71.865 E0.02041
G1 X75.295 Y71.950 E0.02041
G1 X74.650 Y71.865 E0.02041
G1 X74.048 Y71.616 E0.02041
G1 X73.532 Y71.220 E0.02041
G1 X73.136 Y70.703 E0.02041
G1 X72.886 Y70.102 E0.02041
G1 X72.801 Y69.456 E0.02041
G1 X72.886 Y68.811 E0.02041
G1 X73.121 Y68.245 E0.01922
G1 X73.492 Y67.744 E0.01954
M204 S1250
G1 X73.795 Y67.969 F9000.000
M204 S800
;TYPE:External perimeter
G1 F1200.000
G1 X74.239 Y67.626 E0.01757
G1 X74.748 Y67.415 E0.01730
G1 X75.261 Y67.347 E0.01621
G1 X75.841 Y67.414 E0.01831
G1 X76.352 Y67.626 E0.01735
G1 X76.790 Y67.962 E0.01730
G1 X77.126 Y68.400 E0.01730
G1 X77.337 Y68.909 E0.01730
G1 X77.409 Y69.456 E0.01730
G1 X77.337 Y70.003 E0.01730
G1 X77.126 Y70.513 E0.01730
G1 X76.790 Y70.951 E0.01730
G1 X76.352 Y71.287 E0.01730
G1 X75.842 Y71.498 E0.01730
G1 X75.295 Y71.570 E0.01730
G1 X74.748 Y71.498 E0.01730
G1 X74.239 Y71.287 E0.01730
G1 X73.801 Y70.951 E0.01730
G1 X73.465 Y70.513 E0.01730
G1 X73.254 Y70.003 E0.01730
G1 X73.182 Y69.456 E0.01730
G1 X73.254 Y68.909 E0.01730
G1 X73.452 Y68.432 E0.01621
G1 X73.759 Y68.017 E0.01620
M204 S1250
G1 X73.691 Y67.583 F9000.000
G1 E-2.24000 F4200.000
;WIPE_START
G1 F7200.000
G1 X74.239 Y67.626 E-0.34269
G1 X74.748 Y67.415 E-0.30575
G1 X75.220 Y67.353 E-0.26356
;WIPE_END
G1 E-0.04800 F4200.000
G1 Z0.400 F9000.000
G1 X79.422 Y73.524
G1 Z0.200
G1 E3.20000 F2400.000
M204 S800
;TYPE:Perimeter
G1 F1200.000
G1 X80.388 Y72.433 E0.04568
G1 X81.587 Y71.606 E0.04568
G1 X82.949 Y71.089 E0.04568
G1 X84.395 Y70.913 E0.04568
G1 X85.841 Y71.089 E0.04568
G1 X87.204 Y71.606 E0.04568
G1 X88.402 Y72.433 E0.04568
G1 X89.369 Y73.524 E0.04568
G1 X90.045 Y74.814 E0.04568
G1 X90.394 Y76.228 E0.04568
G1 X90.394 Y77.685 E0.04568
G1 X90.045 Y79.099 E0.04568
G1 X89.369 Y80.389 E0.04568
G1 X88.402 Y81.480 E0.04568
G1 X87.204 Y82.307 E0.04568
G1 X85.841 Y82.824 E0.04568
G1 X84.395 Y82.999 E0.04568
G1 X82.949 Y82.824 E0.04568
G1 X81.587 Y82.307 E0.04568
G1 X80.388 Y81.479 E0.04568
G1 X79.422 Y80.389 E0.04568
G1 X78.745 Y79.099 E0.04568
G1 X78.397 Y77.685 E0.04568
G1 X78.397 Y76.228 E0.04568
G1 X78.745 Y74.814 E0.04568
G1 X79.394 Y73.577 E0.04379
M204 S1250
G1 X79.728 Y73.752 F9000.000
M204 S800
;TYPE:External perimeter
G1 F1200.000
G1 X80.640 Y72.718 E0.04324
G1 X81.764 Y71.942 E0.04280
G1 X83.040 Y71.458 E0.04281
G1 X84.395 Y71.293 E0.04280
G1 X85.751 Y71.458 E0.04280
G1 X87.027 Y71.942 E0.04280
G1 X88.151 Y72.718 E0.04280
G1 X89.056 Y73.739 E0.04281
G1 X89.690 Y74.948 E0.04280
G1 X90.017 Y76.274 E0.04280
G1 X90.017 Y77.639 E0.04281
G1 X89.690 Y78.964 E0.04280
G1 X89.056 Y80.173 E0.04280
G1 X88.151 Y81.195 E0.04281
G1 X87.027 Y81.971 E0.04280
G1 X85.751 Y82.455 E0.04280
G1 X84.395 Y82.619 E0.04281
G1 X83.040 Y82.455 E0.04280
G1 X81.764 Y81.971 E0.04281
G1 X80.640 Y81.195 E0.04280
G1 X79.735 Y80.173 E0.04280
G1 X79.100 Y78.964 E0.04281
G1 X78.774 Y77.639 E0.04280
G1 X78.774 Y76.274 E0.04281
G1 X79.100 Y74.948 E0.04280
G1 X79.700 Y73.805 E0.04048
M204 S1250
G1 X79.556 Y73.391 F9000.000
G1 E-2.24000 F4200.000
;WIPE_START
G1 F7200.000
G1 X80.640 Y72.718 E-0.79655
G1 X80.812 Y72.599 E-0.11545
;WIPE_END
G1 E-0.04800 F4200.000
G1 Z0.400 F9000.000
G1 X72.294 Y82.158
G1 Z0.200
G1 E3.20000 F2400.000
M204 S800
;TYPE:Perimeter
G1 F1200.000
G1 X72.698 Y82.684 E0.02082
G1 X72.938 Y83.263 E0.01963
G1 X73.040 Y83.952 E0.02183
G1 X72.953 Y84.615 E0.02097
G1 X72.698 Y85.228 E0.02082
G1 X72.294 Y85.755 E0.02082
G1 X71.767 Y86.159 E0.02082
G1 X71.154 Y86.414 E0.02082
G1 X70.495 Y86.500 E0.02082
G1 X69.837 Y86.414 E0.02082
G1 X69.223 Y86.159 E0.02082
G1 X68.697 Y85.755 E0.02082
G1 X68.292 Y85.228 E0.02082
G1 X68.038 Y84.615 E0.02082
G1 X67.951 Y83.956 E0.02082
G1 X68.038 Y83.298 E0.02082
G1 X68.278 Y82.720 E0.01963
G1 X68.693 Y82.160 E0.02183
G1 X69.223 Y81.753 E0.02097
G1 X69.837 Y81.499 E0.02082
G1 X70.458 Y81.417 E0.01963
G1 X71.149 Y81.497 E0.02183
G1 X71.767 Y81.753 E0.02097
G1 X72.247 Y82.121 E0.01894
M204 S1250
G1 X72.017 Y82.420 F9000.000
M204 S800
;TYPE:External perimeter
G1 F1200.000
G1 X72.369 Y82.875 E0.01802
G1 X72.572 Y83.364 E0.01661
G1 X72.659 Y83.955 E0.01872
G1 X72.585 Y84.516 E0.01776
G1 X72.369 Y85.038 E0.01771
G1 X72.025 Y85.486 E0.01771
G1 X71.577 Y85.830 E0.01771
G1 X71.055 Y86.046 E0.01771
G1 X70.495 Y86.120 E0.01771
G1 X69.935 Y86.046 E0.01771
G1 X69.414 Y85.830 E0.01771
G1 X68.965 Y85.486 E0.01771
G1 X68.622 Y85.038 E0.01771
G1 X68.406 Y84.516 E0.01771
G1 X68.332 Y83.956 E0.01771
G1 X68.406 Y83.396 E0.01771
G1 X68.608 Y82.907 E0.01661
G1 X68.964 Y82.428 E0.01872
G1 X69.414 Y82.083 E0.01776
G1 X69.935 Y81.867 E0.01771
G1 X70.461 Y81.797 E0.01661
G1 X71.054 Y81.866 E0.01872
G1 X71.577 Y82.083 E0.01776
G1 X71.969 Y82.384 E0.01550
M204 S1250
G1 X72.403 Y82.315 F9000.000
G1 E-2.24000 F4200.000
;WIPE_START
G1 F7200.000
G1 X72.369 Y82.875 E-0.35080
G1 X72.572 Y83.364 E-0.29356
G1 X72.642 Y83.842 E-0.26764
;WIPE_END
G1 E-0.04800 F4200.000
G1 Z0.400 F9000.000
G1 X48.102 Y61.480
G1 Z0.200
G1 E3.20000 F2400.000
M204 S800
;TYPE:Perimeter
G1 F1200.000
G1 X46.904 Y62.307 E0.04568
G1 X45.541 Y62.824 E0.04568
G1 X44.095 Y62.999 E0.04568
G1 X42.649 Y62.824 E0.04568
G1 X41.287 Y62.307 E0.04568
G1 X40.088 Y61.480 E0.04568
G1 X39.122 Y60.389 E0.04568
G1 X38.445 Y59.099 E0.04568
G1 X38.097 Y57.685 E0.04568
G1 X38.097 Y56.228 E0.04568
G1 X38.445 Y54.814 E0.04568
G1 X39.122 Y53.524 E0.04568
G1 X40.088 Y52.433 E0.04568
G1 X41.287 Y51.606 E0.04568
G1 X42.649 Y51.089 E0.04568
G1 X44.095 Y50.913 E0.04568
G1 X45.541 Y51.089 E0.04568
G1 X46.904 Y51.606 E0.04568
G1 X48.102 Y52.433 E0.04568
G1 X49.068 Y53.524 E0.04568
G1 X49.745 Y54.814 E0.04568
G1 X50.094 Y56.228 E0.04568
G1 X50.094 Y57.685 E0.04568
G1 X49.745 Y59.099 E0.04568
G1 X49.068 Y60.389 E0.04568
G1 X48.142 Y61.435 E0.04379
M204 S1250
G1 X47.860 Y61.185 F9000.000
M204 S800
;TYPE:External perimeter
G1 F1200.000
G1 X46.727 Y61.971 E0.04324
G1 X45.451 Y62.455 E0.04280
G1 X44.095 Y62.619 E0.04280
G1 X42.740 Y62.455 E0.04280
G1 X41.464 Y61.971 E0.04280
G1 X40.340 Y61.195 E0.04280
G1 X39.435 Y60.173 E0.04280
G1 X38.800 Y58.964 E0.04281
G1 X38.474 Y57.639 E0.04281
G1 X38.474 Y56.274 E0.04280
G1 X38.800 Y54.948 E0.04280
G1 X39.435 Y53.739 E0.04280
G1 X40.340 Y52.718 E0.04281
G1 X41.464 Y51.942 E0.04280
G1 X42.740 Y51.458 E0.04280
G1 X44.095 Y51.293 E0.04280
G1 X45.451 Y51.458 E0.04280
G1 X46.727 Y51.942 E0.04280
G1 X47.851 Y52.718 E0.04280
G1 X48.756 Y53.739 E0.04281
G1 X49.390 Y54.948 E0.04280
G1 X49.717 Y56.274 E0.04280
G1 X49.717 Y57.639 E0.04280
G1 X49.390 Y58.964 E0.04281
G1 X48.756 Y60.173 E0.04281
G1 X47.900 Y61.140 E0.04048
M204 S1250
G1 X47.941 Y61.576 F9000.000
G1 E-2.24000 F4200.000
;WIPE_START
G1 F7200.000
G1 X46.727 Y61.971 E-0.79654
G1 X46.532 Y62.045 E-0.11546
;WIPE_END
G1 E-0.04800 F4200.000
G1 Z0.400 F9000.000
G1 X69.223 Y32.159
G1 Z0.200
G1 E3.20000 F2400.000
M204 S800
;TYPE:Perimeter
G1 F1200.000
G1 X68.697 Y31.755 E0.02082
G1 X68.292 Y31.228 E0.02082
G1 X68.038 Y30.615 E0.02082
G1 X67.951 Y29.956 E0.02082
G1 X68.038 Y29.298 E0.02082
G1 X68.278 Y28.720 E0.01963
G1 X68.693 Y28.160 E0.02184
G1 X69.223 Y27.753 E0.02097
G1 X69.837 Y27.499 E0.02082
G1 X70.458 Y27.417 E0.01963
G1 X71.149 Y27.497 E0.02183
G1 X71.767 Y27.753 E0.02097
G1 X72.294 Y28.158 E0.02082
G1 X72.698 Y28.684 E0.02082
G1 X72.953 Y29.298 E0.02082
G1 X73.039 Y29.956 E0.02082
G1 X72.953 Y30.615 E0.02082
G1 X72.698 Y31.228 E0.02082
G1 X72.294 Y31.755 E0.02082
G1 X71.767 Y32.159 E0.02082
G1 X71.154 Y32.414 E0.02082
G1 X70.495 Y32.500 E0.02082
G1 X69.837 Y32.414 E0.02082
G1 X69.279 Y32.182 E0.01894
M204 S1250
G1 X69.423 Y31.834 F9000.000
M204 S800
;TYPE:External perimeter
G1 F1200.000
G1 X68.965 Y31.486 E0.01802
G1 X68.622 Y31.038 E0.01771
G1 X68.406 Y30.516 E0.01771
G1 X68.332 Y29.956 E0.01771
G1 X68.406 Y29.396 E0.01771
G1 X68.608 Y28.907 E0.01661
G1 X68.964 Y28.428 E0.01872
G1 X69.414 Y28.083 E0.01776
G1 X69.935 Y27.867 E0.01771
G1 X70.461 Y27.797 E0.01661
G1 X71.054 Y27.866 E0.01872
G1 X71.577 Y28.083 E0.01776
G1 X72.025 Y28.427 E0.01771
G1 X72.369 Y28.875 E0.01771
G1 X72.585 Y29.396 E0.01771
G1 X72.659 Y29.956 E0.01771
G1 X72.585 Y30.516 E0.01771
G1 X72.369 Y31.038 E0.01771
G1 X72.025 Y31.486 E0.01771
G1 X71.577 Y31.830 E0.01771
G1 X71.055 Y32.046 E0.01771
G1 X70.495 Y32.120 E0.01771
G1 X69.935 Y32.046 E0.01771
G1 X69.479 Y31.857 E0.01550
M204 S1250
G1 X69.077 Y32.035 F9000.000
G1 E-2.24000 F4200.000
;WIPE_START
G1 F7200.000
G1 X68.965 Y31.486 E-0.35080
G1 X68.622 Y31.038 E-0.31300
G1 X68.450 Y30.624 E-0.24819
;WIPE_END
G1 E-0.04800 F4200.000
G1 Z0.400 F9000.000
G1 X65.292 Y38.671
G1 Z0.200
G1 E3.20000 F2400.000
M204 S800
;TYPE:Perimeter
G1 F1200.000
G1 X66.078 Y39.274 E0.03105
G1 X66.681 Y40.059 E0.03105
G1 X67.060 Y40.974 E0.03105
G1 X67.182 Y41.905 E0.02942
G1 X67.182 Y57.008 E0.47355
G1 X67.060 Y57.938 E0.02942
G1 X66.681 Y58.853 E0.03105
G1 X66.078 Y59.639 E0.03105
G1 X65.292 Y60.242 E0.03105
G1 X64.377 Y60.621 E0.03105
G1 X63.395 Y60.750 E0.03105
G1 X62.413 Y60.621 E0.03105
G1 X61.498 Y60.242 E0.03105
G1 X60.713 Y59.639 E0.03105
G1 X60.110 Y58.853 E0.03105
G1 X59.731 Y57.938 E0.03105
G1 X59.608 Y57.008 E0.02942
G1 X59.608 Y41.905 E0.47355
G1 X59.731 Y40.974 E0.02942
G1 X60.110 Y40.059 E0.03105
G1 X60.713 Y39.274 E0.03105
G1 X61.498 Y38.671 E0.03105
G1 X62.413 Y38.292 E0.03105
G1 X63.352 Y38.168 E0.02969
G1 X64.374 Y38.290 E0.03227
G1 X65.237 Y38.648 E0.02928
M204 S1250
G1 X65.093 Y38.996 F9000.000
M204 S800
;TYPE:External perimeter
G1 F1200.000
G1 X65.809 Y39.543 E0.02825
G1 X66.352 Y40.250 E0.02794
G1 X66.693 Y41.073 E0.02794
G1 X66.805 Y41.929 E0.02709
G1 X66.805 Y56.983 E0.47200
G1 X66.693 Y57.840 E0.02709
G1 X66.352 Y58.663 E0.02794
G1 X65.809 Y59.370 E0.02794
G1 X65.102 Y59.913 E0.02794
G1 X64.279 Y60.254 E0.02794
G1 X63.395 Y60.370 E0.02794
G1 X62.512 Y60.254 E0.02794
G1 X61.689 Y59.913 E0.02794
G1 X60.982 Y59.370 E0.02794
G1 X60.439 Y58.663 E0.02794
G1 X60.098 Y57.840 E0.02794
G1 X59.985 Y56.983 E0.02709
G1 X59.985 Y41.929 E0.47200
G1 X60.098 Y41.073 E0.02709
G1 X60.439 Y40.250 E0.02794
G1 X60.982 Y39.543 E0.02794
G1 X61.689 Y39.000 E0.02794
G1 X62.512 Y38.659 E0.02794
G1 X63.354 Y38.548 E0.02664
G1 X64.278 Y38.659 E0.02916
G1 X65.037 Y38.973 E0.02577
M204 S1250
G1 X65.438 Y38.794 F9000.000
G1 E-2.24000 F4200.000
;WIPE_START
G1 F7200.000
G1 X65.809 Y39.543 E-0.53157
G1 X66.227 Y40.087 E-0.38043
;WIPE_END
G1 E-0.04800 F4200.000
G1 Z0.400 F9000.000
G1 X73.121 Y43.245
G1 Z0.200
G1 E3.20000 F2400.000
M204 S800
;TYPE:Perimeter
G1 F1200.000
G1 X73.528 Y42.696 E0.02142
G1 X74.048 Y42.297 E0.02056
G1 X74.650 Y42.047 E0.02041
G1 X75.258 Y41.967 E0.01922
G1 X75.936 Y42.046 E0.02142
G1 X76.542 Y42.297 E0.02056
G1 X77.059 Y42.693 E0.02041
G1 X77.455 Y43.209 E0.02041
G1 X77.704 Y43.811 E0.02041
G1 X77.789 Y44.456 E0.02041
G1 X77.704 Y45.102 E0.02041
G1 X77.455 Y45.703 E0.02041
G1 X77.059 Y46.220 E0.02041
G1 X76.542 Y46.616 E0.02041
G1 X75.941 Y46.865 E0.02041
G1 X75.295 Y46.950 E0.02041
G1 X74.650 Y46.865 E0.02041
G1 X74.083 Y46.631 E0.01922
G1 X73.535 Y46.224 E0.02142
G1 X73.136 Y45.703 E0.02056
G1 X72.886 Y45.102 E0.02041
G1 X72.801 Y44.456 E0.02041
G1 X72.886 Y43.811 E0.02041
G1 X73.098 Y43.300 E0.01734
M204 S1250
G1 X73.799 Y42.963 F9000.000
M204 S800
;TYPE:External perimeter
G1 F1200.000
G1 X74.239 Y42.626 E0.01735
G1 X74.748 Y42.415 E0.01730
G1 X75.261 Y42.347 E0.01621
G1 X75.841 Y42.414 E0.01831
G1 X76.352 Y42.626 E0.01735
G1 X76.790 Y42.962 E0.01730
G1 X77.126 Y43.400 E0.01730
G1 X77.337 Y43.909 E0.01730
G1 X77.409 Y44.456 E0.01730
G1 X77.337 Y45.003 E0.01730
G1 X77.126 Y45.513 E0.01730
G1 X76.790 Y45.951 E0.01730
G1 X76.352 Y46.287 E0.01730
G1 X75.842 Y46.498 E0.01730
G1 X75.295 Y46.570 E0.01730
G1 X74.748 Y46.498 E0.01730
G1 X74.271 Y46.300 E0.01621
G1 X73.802 Y45.952 E0.01831
G1 X73.465 Y45.513 E0.01735
G1 X73.254 Y45.003 E0.01730
G1 X73.182 Y44.456 E0.01730
G1 X73.254 Y43.909 E0.01730
G1 X73.452 Y43.432 E0.01621
G1 X73.764 Y43.011 E0.01643
M204 S1250
G1 X73.696 Y42.577 F9000.000
G1 E-2.24000 F4200.000
;WIPE_START
G1 F7200.000
G1 X74.239 Y42.626 E-0.33881
G1 X74.748 Y42.415 E-0.30575
G1 X75.227 Y42.352 E-0.26744
;WIPE_END
G1 E-0.04800 F4200.000
G1 Z0.400 F9000.000
G1 X79.422 Y40.389
G1 Z0.200
G1 E3.20000 F2400.000
M204 S800
;TYPE:Perimeter
G1 F1200.000
G1 X78.745 Y39.099 E0.04568
G1 X78.397 Y37.685 E0.04568
G1 X78.397 Y36.228 E0.04568
G1 X78.745 Y34.814 E0.04568
G1 X79.422 Y33.524 E0.04568
G1 X80.388 Y32.433 E0.04568
G1 X81.587 Y31.606 E0.04568
G1 X82.949 Y31.089 E0.04568
G1 X84.395 Y30.913 E0.04568
G1 X85.841 Y31.089 E0.04568
G1 X87.204 Y31.606 E0.04568
G1 X88.402 Y32.433 E0.04568
G1 X89.369 Y33.524 E0.04568
G1 X90.045 Y34.814 E0.04568
G1 X90.394 Y36.228 E0.04568
G1 X90.394 Y37.685 E0.04568
G1 X90.045 Y39.099 E0.04568
G1 X89.368 Y40.389 E0.04568
G1 X88.402 Y41.480 E0.04568
G1 X87.204 Y42.307 E0.04568
G1 X85.841 Y42.824 E0.04568
G1 X84.395 Y42.999 E0.04568
